X:1
T:Title
%%score { ( 1 3 4 ) | ( 2 5 6 ) }
L:1/8
M:4/4
K:Bb
V:1 treble nm="Grand Piano"
V:3 treble 
V:4 treble 
V:2 bass 
V:5 bass 
V:6 bass 
V:1
 z4 z2[Q:1/4=100] [B,D][CE] | [DF][DF][DF][DF] [DF]2 [DB][Ec] | [Fd]2 [Ec][DB] [DF]2 [DF][FB] | %3
 AAAB c2 [FA][FA] | [FB]2 c2 d2 D[CE] |[M:3/4] [DF][DF] [DF][DF] [DF]2 |[M:1/4] [DB][Ec] | %7
[M:4/4] [Fd]2 [Fc][FB] G2 GA | BBAG FFGA |[M:3/4] [B,DB]6 |[M:1/4] AB |[M:4/4] c6 z2 | B6 z2 | %13
 d6 z2 | [Fc]6 z2 | [Fd][Fd][Fd][Fd] [DB][DB][EA][FB] | ccBG [B,DF]2 AB | c6 z2 |[M:3/4] [DB]6 |] %19
V:2
 z4 z2 [B,,F,][B,,F,] | [B,,B,][B,,B,][B,,B,][B,,B,] [B,,B,]2 [B,,B,][B,,B,] | %2
 [B,,B,]2 [B,,B,][B,,B,] [B,,B,]2 [B,,B,][D,B,] | [F,CF][F,CF][F,CE][F,B,D] [F,A,E]2 [E,C][E,C] | %4
 [D,B,]2[K:treble] [F,A,F]2 [B,F]2[K:bass] [B,,F,B,][B,,F,] | %5
[M:3/4] [B,,B,][B,,B,] [B,,B,][B,,B,] [B,,B,]2 |[M:1/4] [B,,B,][B,,B,] | %7
[M:4/4] [B,,B,]2 [C,A,][D,B,] [E,B,E]2 [E,B,E][E,B,E] | %8
 [=E,G,_D][E,G,D][E,B,D][E,B,D] [F,B,=D][F,B,D][F,A,E][F,CE] |[M:3/4] B,,6 |[M:1/4] CD | %11
[M:4/4] E6 z2 | [B,,B,][B,,B,][B,,A,][B,,G,] [B,,F,]2[K:treble] DE | F6[K:bass] .[G,=E]2 | %14
 [F,A,]G,A,G, F,[E,A,][D,B,][C,A,] | [B,,B,][B,,B,][B,,B,][B,,B,] [B,,F,][B,,F,][C,F,][D,B,] | %16
 [E,G,E][E,G,E][E,G,E][E,B,E] B,,2 CD | E6 z2 |[M:3/4] [B,,B,]6 |] %19
V:3
 x8 | x8 | x8 | x8 | x8 |[M:3/4] x6 |[M:1/4] x2 |[M:4/4] x8 | x8 |[M:3/4] x6 |[M:1/4] x2 | %11
[M:4/4] z2 A,A, z cBA | DEFE D2 Bc | z B,B,B, z Bc[=Ed] | z B,CB, A,[Fc][FB][Fc] | x8 | x8 | %17
 z2 A,A, A,cBA |[M:3/4] x6 |] %19
V:4
 x8 | x8 | x8 | x8 | x8 |[M:3/4] x6 |[M:1/4] x2 |[M:4/4] x8 | x8 |[M:3/4] x6 |[M:1/4] x2 | %11
[M:4/4] z4 A,2 z2 | x8 | z4 B,2 z2 | x8 | x8 | x8 | x8 |[M:3/4] x6 |] %19
V:5
 x8 | x8 | x8 | x8 | x2[K:treble] x4[K:bass] x2 |[M:3/4] x6 |[M:1/4] x2 |[M:4/4] x8 | x8 | %9
[M:3/4] x6 |[M:1/4] x2 |[M:4/4] z2 F,F, z E[F,B,E][F,CE] | x6[K:treble] x2 | %13
 z[K:bass] B,,D,F, z DB,-[C,B,] | x8 | x8 | x8 | z2 F,F, F,[F,A,E][F,A,E][F,CE] |[M:3/4] x6 |] %19
V:6
 x8 | x8 | x8 | x8 | x2[K:treble] x4[K:bass] x2 |[M:3/4] x6 |[M:1/4] x2 |[M:4/4] x8 | x8 | %9
[M:3/4] x6 |[M:1/4] x2 |[M:4/4] z4 F,2 z2 | x6[K:treble] x2 | x[K:bass] x7 | x8 | x8 | x8 | x8 | %18
[M:3/4] x6 |] %19

